!!!COM: Beethoven, Ludwig van
!!!CDT: 1770///-1827///
!!!OTL: Piano Sonata no. 3 in C major
!!!ODT: 1794///-1795///
!!!ODE: Joseph Haydn
!!!OMD: Scherzo: Allegro
!!!OPS: 2
!!!ONM: 3
!!!OMV: 3
**kern	**kern	**dynam
*Ipiano	*Ipiano	*Ipiano
*>[A,A,B,B1,B,B2,C,C1,C,C2,D,A,B,B2,E]	*>[A,A,B,B1,B,B2,C,C1,C,C2,D,A,B,B2,E]	*>[A,A,B,B1,B,B2,C,C1,C,C2,D,A,B,B2,E]
*>norep[A,B,B2,C,C2,D,A,B,B2,E]	*>norep[A,B,B2,C,C2,D,A,B,B2,E]	*>norep[A,B,B2,C,C2,D,A,B,B2,E]
*>A	*>A	*>A
*staff2	*staff1	*staff1
*clefF4	*clefG2	*clefG2
*k[]	*k[]	*k[]
*C:	*C:	*C:
*M3/4	*M3/4	*M3/4
*MM244	*MM244	*MM244
8r	(8gg\L	p
4r	8ff#\	.
.	8gg\J)	.
=1	=1	=1
2.r	4aa'\	.
.	4gg'\	.
.	4ffn'\	.
=2	=2	=2
*	*^	*
2.r	4ee'/	4r	.
.	4dd'/	8r	.
.	.	(8e\L	.
.	4cc'/	8d\	.
.	.	8e\J)	.
=3	=3	=3	=3
2.r	2.b/	4f'\	.
.	.	4d'\	.
.	.	4g'\	.
=4	=4	=4	=4
4r	2.cc/	4e'\	.
8r	.	4d'\	.
(8G\L	.	.	.
8F#\	.	4c'\	.
8G\J)	.	.	.
*	*v	*v	*
=5	=5	=5
4A'\	2.g\ 2.b\ 2.dd\	.
4G'\	.	.
4Fn'\	.	.
=6	=6	=6
4E'\	2.g\ 2.cc\ 2.ee\	.
4D'\	.	.
4C'\	.	.
=7	=7	=7
4BB'/	4g'\ 4dd'\ 4gg'\	.
4GG'/	4g'\ 4b'\ 4ff'\	.
4C'/	4g'\ 4cc'\ 4ee'\	.
=8	=8	=8
4GG/	4g\ 4b\ 4dd\	.
*clefG2	*	*
8r	4r	p
(8dd\L	.	.
8cc#\	4r	.
8dd\J)	.	.
=9	=9	=9
4ee-'\	4r	.
4dd'\	8r	.
.	(8ff#\L	.
4cc'\	8ee\	.
.	8ff#\J)	.
=10	=10	=10
4b-'/	4gg'\	.
4a'/	8r	.
.	(8gg\L	<
4g'/	8ff#\	.
.	8gg\J)	.
=11	=11	=11
4e-'/ 4f#'/	4aa'\	.
4d'/	8r	.
.	(8aa\L	.
4c'/	8gg\	.
.	8aa\J)	.
*clefF4	*	*
=12	=12	=12
4B-'\	4bb-'\	.
4A'\	8r	.
.	(8bb-\L	.
4G'\	8aa\	.
.	8bb-\J)	.
=13	=13	=13
4BB-'\ 4B-'\	4ccc#'\	f
4AA'\ 4A'\	8r	.
.	(8ccc#\L	.
4GG'\ 4G'\	8bb#\	.
.	8ccc#\J)	.
=14	=14	=14
4FF#'/ 4F#'/	4ddd'\	.
4EE'/ 4E'/	8r	.
.	(8ddd\L	.
4DD'/ 4D'/	8ccc#\	.
.	8ddd\J)	.
=15	=15	=15
4GG'/ 4G'/	4dd'\ 4gg'\ 4bbn'\	.
4CC'/ 4C'/	4ee'\ 4aa'\ 4ccc'\	.
4DD'/ 4D'/	4cc'\ 4ff#'\ 4aa'\	.
=16	=16	=16
4GGG/ 4GG/	4b\ 4dd\ 4gg\	.
8r	8r	.
=:|!|:	=:|!|:	=:|!|:
*>B	*>B	*>B
*	*^	*
4.r	8r	(8g\L	.
.	4r	8f#\	.
.	.	8g\J)	.
=17	=17	=17	=17
2.r	4r	4a-'\	.
.	8r	4g'\	.
.	(8b/L	.	.
.	8an/	4fn'\	.
.	8b/J)	.	.
=18	=18	=18	=18
2.r	4cc/	4e-'\	.
.	8r	4d'\	.
.	(8cc/L	.	.
.	8b/	4c'\	.
.	8cc/J)	.	.
=19	=19	=19	=19
2.r	4a/	4g-'\	.
.	8r	4f'\	.
.	(8a/L	.	.
.	8gn/	4e-'\	.
.	8a/J)	.	.
*	*v	*v	*
=20	=20	=20
4d-'\	4b-/	.
4c'\	8r	.
.	(8b-/L	.
4B-'\	8a/	.
.	8b-/J)	.
=21	=21	=21
4A'\	4gg-'\	.
8r	4ff'\	.
(8A\L	.	.
8G\	4ee-'\	.
8A\J)	.	.
=22	=22	=22
4B-'\	4dd-'\	.
8r	4cc'\	.
(8d-\L	.	.
8c\	4b-'\	.
8d-\J)	.	.
=23	=23	=23
4G'\	4ff'\ 4fff'\	.
8r	4ee-'\ 4eee-'\	.
(8G\L	.	.
8F\	4dd-'\ 4ddd-'\	.
8G\J)	.	.
=24	=24	=24
4A-'\	4cc'\ 4ccc'\	.
8r	4b-'\ 4bb-'\	.
(8c\L	.	.
8Bn\	4a-'\ 4aa-'\	.
8c\J)	.	.
=25	=25	=25
4F#'\	4ee-'\ 4eee-'\	.
8r	4dd'\ 4ddd'\	.
(8F#\L	.	.
8En\	4cc'\ 4ccc'\	.
8F#\J)	.	.
=26	=26	=26
4G'\	4bn'\ 4bbn'\	.
8r	4an'\ 4aan'\	.
(8G\L	.	.
8F#\	4g'\ 4gg'\	.
8G\J)	.	.
=27	=27	=27
4E-'\	4e-'/ 4ee-'/	f
4D'\	4d'/ 4dd'/	.
4C'\	4c'/ 4cc'/	.
=28	=28	=28
*^	*	*
4r	4GG\	4G/ 4g/	p
8r	8r	4r	.
8G/L	(8GG\L	.	.
8F#/	8FF#\	4r	.
8G/J	8GG\J)	.	.
=29	=29	=29	=29
(4A-/	4AA-\	4.r	.
8G/)	8GG\	.	.
8r	4.r	8r	.
4G'\ 4B'\ 4d'\	.	4b'\ 4dd'\ 4gg'\	.
=30	=30	=30	=30
4G\ 4c\ (4e-\	4.r	4a\ 4cc\ 4ee-\ (4ff#\	.
8G\ 8B\ 8d\)	.	8b\ 8dd\ 8gg\)	p
(8GG\L	8G/L	4.r	.
8FF#\	8F#/	.	.
8GG\J)	8G/J	.	.
=31	=31	=31	=31
(4A-/	4AA-\	4.r	.
8G/)	8GG\	.	.
8r	4.r	8r	.
4G'\ 4B'\ 4d'\	.	4b'\ 4dd'\ 4gg'\	.
=32	=32	=32	=32
4G\ 4c\ (4e-\	4.r	4cc\ 4ee-\ 4ff#\ (4aan\	.
8G\ 8B\ 8d\)	.	8b\ 8dd\ 8gg\)	p
8GG\L	(8G/L	4.r	.
8FF#\	8F#/	.	.
8GG\J	8G/J)	.	.
=33	=33	=33	=33
(4A-/	4AA-\	4.r	.
8G/)	8GG\	.	.
8r	4.r	8r	.
4G'\ 4B'\ 4d'\	.	4b'\ 4dd'\ 4gg'\	.
*v	*v	*	*
=34	=34	=34
4G\ 4c\ (4e-\	4cc\ 4ee-\ (4aa-\	.
8G\ 8B\ 8d\)	8b\ 8dd\ 8gg\)	.
8r	8r	.
4G'\ 4B'\ 4d'\	4b'\ 4dd'\ 4gg'\	.
=35	=35	=35
[4G\ 4c\ (4e-\	4cc\ 4ee-\ (4aa-\	.
8G\] 8B\ 8d\)	8b\ 8dd\ 8gg\)	.
8r	8r	.
4G'\ 4B'\ 4d'\	4b'\ 4dd'\ 4gg'\	.
=36	=36	=36
4G\ 4c\ (4e-\	4cc\ 4ee-\ (4aa-\	.
8G\ 8B\ 8d\)	8b\ 8dd\ 8gg\)	.
8r	(8gg\L	.
4r	8ff#\	.
.	8gg\J)	.
=37	=37	=37
2.r	(4aa-\	.
.	8gg\)	.
.	(8gg\L	.
.	8ff#\	.
.	8gg\J)	.
=38	=38	=38
2.r	(4aa-\	.
.	8gg\)	.
.	(8gg\L	pp
.	8ff#\	.
.	8gg\J)	.
=39	=39	=39
2.r	(4aa-\	.
.	8gg\)	.
.	(8gg\L	.
.	8ff#\	.
.	8gg\J)	.
=40	=40	=40
2.r	4aan'\	.
.	4gg'\	.
.	4ffn'\	.
=41	=41	=41
*	*^	*
2.r	4ee'/	4r	.
.	4dd'/	8r	p
.	.	(8e\L	.
.	4cc'/	8d\	.
.	.	8e\J)	.
=42	=42	=42	=42
2.r	2.b/	4f'\	.
.	.	4d'\	.
.	.	4g'\	.
=43	=43	=43	=43
4r	2.cc/	4e'\	.
8r	.	4d'\	.
(8E\L	.	.	.
8D\	.	4c'\	.
8E\J)	.	.	.
*	*v	*v	*
=44	=44	=44
4F'\	2.g\ 2.b\ 2.dd\	.
4D'\	.	.
4G'\	.	.
=45	=45	=45
4E'\	2.g\ 2.cc\ [2.ee\	.
4D'\	.	.
4C'\	.	.
=46	=46	=46
*	*^	*
4FF/	4cc#'/ 4ee'/]	2a\	.
4r	4dd/ 4ff/	.	.
4GG'/	4b'/ 4dd'/	4f\	.
=47	=47	=47	=47
4CC'/ 4C'/	4cc'/	4e\	p
*clefG2	*	*	*
8r	4r	4r	.
(8cc\L	.	.	.
8b\	4r	4r	.
8cc\J)	.	.	.
*	*v	*v	*
=48	=48	=48
4dd-'\	4r	.
4cc'\	8r	.
.	(8ee\L	.
4b-'\	8ddn\	.
.	8ee\J)	.
=49	=49	=49
4a-'/	4ff'\	.
4g'/	8r	.
.	(8ff\L	.
4f'/	8ee\	.
.	8ff\J)	.
=50	=50	=50
4a-'/	4bb'\	.
4g'/	8r	.
.	(8bb\L	.
4f'/	8aa\	.
.	8bb\J)	.
=51	=51	=51
4e-'/	4ccc'\	.
4d'/	8r	.
.	(8ccc\L	.
4c'/	8bb\	.
.	8ccc\J)	.
=52	=52	=52
4e-'/	4ff#'\	.
4d'/	8r	.
.	(8ff#\L	.
4c'/	8ee#\	.
.	8ff#\J)	.
*clefF4	*	*
=53	=53	=53
4B'\	4gg'\	.
4A'\	8r	.
.	(8gg\L	.
4G'\	8ff#\	.
.	8gg\J)	.
=54	=54	=54
4c'\	4g'\ 4cc'\ 4ee'\	.
4F'\	4a'\ 4dd'\ 4ffn'\	.
4G'\	4f'\ 4b'\ 4dd'\	.
=55	=55	=55
4C/	4e/ 4cc/	.
8r	8r	.
(8C/L	(8c/L	.
8BB/	8B/	.
8C/J)	8c/J)	.
=56	=56	=56
(4D-/	(4d-/	.
8C/)	8c/)	.
8r	8r	.
*clefG2	*	*
4c'/ 4e'/ 4g'/	4cc'\ 4ee'\	.
=57	=57	=57
[4c/ 4f/ 4a-/	4b\ 4dd\ (4ff\	.
8c/] 8e/ 8g/	8cc\ 8ee\)	.
*clefF4	*	*
(8C/L	(8c/L	.
8BB/	8B/	.
8C/J)	8c/J)	.
=58	=58	=58
(4D-/	(4d-/	.
8C/)	8c/)	.
8r	8r	.
*clefG2	*	*
4c'/ 4e'/ 4g'/	4ee'\ 4gg'\ 4ccc'\	.
=59	=59	=59
[4c/ 4f/ (4a-/	4ff\ 4aa-\ (4bb\	.
8c/] 8e/ 8g/)	8ee\ 8gg\ 8ccc\)	.
*clefF4	*	*
(8C/L	(8c/L	.
8BB/	8B/	.
8C/J)	8c/J)	.
=60	=60	=60
(4D-/	(4d-/	.
8C/)	8c/)	.
8r	8r	.
*clefG2	*	*
4c'/ 4e'/ 4g'/	4ccc'\ 4eee'\	.
=61	=61	=61
[4c/ 4f/ 4a-/	4bb\ 4ddd\ (4fff\	.
4c/] 4e/ 4g/	4ccc\ 4eee\)	.
4c'/ 4e'/ 4g'/	4ccc'\ 4eee'\	.
=62	=62	=62
[4c/ 4f/ (4a-/	4bb\ 4ddd\ (4fff\	.
4c/] 4e/ 4g/)	4ccc\ 4eee\)	.
4c'/ 4e'/ 4g'/	4ccc'\ 4eee'\	.
=63	=63	=63
[4c/ 4f/ (4a-/	4bb\ 4ddd\ (4fff\	.
4c/] 4e/ 4g/)	4ccc\ 4eee\)	.
*clefF4	*	*
4C'\ 4c'\	4cc'\ 4ccc'\	ff
=64	=64	=64
*>B1	*>B1	*>B1
4CC/ 4C/	4c/ 4cc/	.
8r	8r	.
=65:|!	=65:|!	=65:|!
*>B2	*>B2	*>B2
4CC/ 4C/	4c/ 4cc/	.
4r	4r	.
4r	4r	.
=66	=66	=66
*>C	*>C	*>C
*^	*	*
(12E/L	2.AAA\ 2.AA\	4r	.
12A/	.	.	.
12c/J)	.	.	.
4r	.	(12e/L	.
.	.	12a/	.
.	.	12cc/J)	.
4r	.	(12ee/L	.
.	.	12cc/	.
.	.	12a/J)	.
=67	=67	=67	=67
4r	2.BBB\ 2.BB\	12ee/L	.
.	.	12b/	.
.	.	12g#/J	.
12e/L	.	4r	.
12B/	.	.	.
12G#/J	.	.	.
12E/L	.	4r	.
12G#/	.	.	.
12B/J	.	.	.
=68	=68	=68	=68
12C/L	2.CC\	4r	.
12A/	.	.	.
12c/J	.	.	.
4r	.	12e/L	.
.	.	12a/	.
.	.	12cc/J	.
4r	.	12ee/L	.
.	.	12cc/	.
.	.	12a/J	.
=69	=69	=69	=69
4r	2.DD\ 2.D\	12ee/L	.
.	.	12b/	.
.	.	12g#/J	.
12e/L	.	4r	.
12B/	.	.	.
12G#/J	.	.	.
12E/L	.	4r	.
12G#/	.	.	.
12B/J	.	.	.
=70	=70	=70	=70
12E/L	2.CC\ 2.C\	4r	.
12A/	.	.	.
12c/J	.	.	.
4r	.	12e/L	.
.	.	12a/	.
.	.	12cc/J	.
4r	.	12ee/L	.
.	.	12cc/	.
.	.	12a/J	.
=71	=71	=71	=71
4r	2.BBB\ 2.BB\	12ee/L	.
.	.	12b/	.
.	.	12gn/J	.
12e/L	.	4r	.
12B/	.	.	.
12Gn/J	.	.	.
12E/L	.	4r	.
12G/	.	.	.
12B/J	.	.	.
=72	=72	=72	=72
12e/L	4AAA#\ 4AA#\	2.r	.
12c#/	.	.	.
12G/J	.	.	.
12e/L	4BBB\ 4BB\	.	.
12B/	.	.	.
12G/J	.	.	.
12d#/L	4BBB\ 4BB\	.	.
12B/	.	.	.
12F#/J	.	.	.
*v	*v	*	*
=73	=73	=73
*>C1	*>C1	*>C1
*^	*	*
4G/ 4B/	4EE\	4e/	.
4r	4E\	4r	.
4E/	4r	4r	.
*v	*v	*	*
=74:|!	=74:|!	=74:|!
*>C2	*>C2	*>C2
*^	*	*
4G/ 4B/	4EE\	4e/	.
4r	4E\	4r	.
4G/	4r	4r	.
*v	*v	*	*
=75	=75	=75
*>D	*>D	*>D
2.CC\ 2.C\	12G/L	.
.	12c/	<
.	12e/J	.
.	12g/L	.
.	12cc/	.
.	12ee/J	.
.	12gg'\L	.
.	12ee\	.
.	12cc\J	.
=76	=76	=76
2.DD/ 2.D/	12gg'\L	.
.	12dd\	.
.	12b\J	.
.	12g/L	.
.	12d/	.
.	12B/J	.
.	12G/L	.
.	12B/	.
.	12d/J	.
=77	=77	=77
4EE/ 4E/	12g/L	.
.	12c#/	.
.	12B-/J	.
4DD/ 4D/	12g/L	.
.	12d/	.
.	12B-/J	.
4CC#/ 4C#/	12g/L	.
.	12e/	.
.	12A/J	.
=78	=78	=78
4DD/ 4D/	12g/L	.
.	12e/	.
.	12A/J	.
4r	12f/L	.
.	12d/	.
.	12A/J	.
4r	12f/L	.
.	12d/	.
.	12A/J	.
=79	=79	=79
2.DD/ 2.D/	12A/L	.
.	12d/	.
.	12f/J	.
.	12a\L	.
.	12dd\	.
.	12ff\J	.
.	12aa'\L	.
.	12ff\	.
.	12dd\J	.
=80	=80	=80
2.EE/ 2.E/	12aa'\L	.
.	12ee\	.
.	12cc\J	.
.	12a/L	.
.	12e/	.
.	12c/J	.
.	12A/L	.
.	12c/	.
.	12e/J	.
=81	=81	=81
4FF#/ 4F#/	12a/L	.
.	12d#/	.
.	12B/J	.
4EE/ 4E/	12a/L	.
.	12e/	.
.	12B/J	.
4CC#/ 4D#/	12a/L	.
.	12f#/	.
.	12B/J	.
=82	=82	=82
4EE/ 4E/	12a/L	.
.	12e/	.
.	12B/J	.
4r	12g#/L	.
.	12e/	.
.	12B/J	.
4r	12g#/L	.
.	12e/	.
.	12B/J	.
=83	=83	=83
2.AA\ 2.A\	12e\L	.
.	12a\	.
.	12cc\J	.
.	12ee\L	.
.	12aa\	.
.	12ccc\J	.
.	12eee'\L	.
.	12ccc\	.
.	12aa\J	.
=84	=84	=84
2.BB\ 2.B\	12eee'\L	.
.	12bb\	.
.	12gg#\J	.
.	12ee\L	.
.	12b\	.
.	12g#\J	.
.	12e\L	.
.	12g#\	.
.	12b\J	.
=85	=85	=85
2.C\ 2.c\	12e\L	.
.	12a\	.
.	12cc\J	.
.	12ee\L	.
.	12aa\	.
.	12ccc\J	.
.	12eee'\L	.
.	12ccc\	.
.	12aa\J	.
=86	=86	=86
2.D\ 2.d\	12eee'\L	.
.	12bb\	.
.	12gg#\J	.
.	12ee\L	.
.	12b\	.
.	12g#\J	.
.	12e\L	.
.	12g#\	.
.	12b\J	.
=87	=87	=87
2.C\ 2.c\	12e\L	.
.	12a\	.
.	12cc\J	.
.	12ee\L	.
.	12aa\	.
.	12ccc\J	.
.	12eee\L	.
.	12ccc\	.
.	12aa\J	.
=88	=88	=88
2.D\ 2.d\	12eee\L	.
.	12ccc\	.
.	12ff\J	.
.	12ddd\L	.
.	12bb\	.
.	12ff\J	.
.	12ddd\L	.
.	12bb\	.
.	12ff\J	.
=89	=89	=89
4E\ 4e\	12ddd\L	.
.	12bb\	.
.	12ee\J	.
4r	12ccc\L	.
.	12aa\	.
.	12ee\J	.
4EE/ 4E/	12bb\L	.
.	12gg#\	.
.	12dd\J	.
=90	=90	=90
*^	*	*
4AA/	4r	4cc\ 4aa\	.
4r	4A\	4r	.
4G/	4r	4r	.
*v	*v	*	*
=91	=91	=91
2.CC\ 2.C\	12G/L	.
.	12c/	.
.	12e/J	.
.	12g/L	.
.	12cc/	.
.	12ee/J	.
.	12gg'\L	.
.	12ee\	.
.	12cc\J	.
=92	=92	=92
2.DD/ 2.D/	12gg'\L	.
.	12dd\	.
.	12b\J	.
.	12g/L	.
.	12d/	.
.	12B/J	.
.	12G/L	.
.	12B/	.
.	12d/J	.
=93	=93	=93
4EE/ 4E/	12g/L	.
.	12c#/	.
.	12B-/J	.
4DD/ 4D/	12g/L	.
.	12d/	.
.	12B-/J	.
4CC#/ 4C#/	12g/L	.
.	12e/	.
.	12A/J	.
=94	=94	=94
4DD/ 4D/	12g/L	.
.	12e/	.
.	12A/J	.
4r	12f/L	.
.	12d/	.
.	12A/J	.
4r	12f/L	.
.	12d/	.
.	12A/J	.
=95	=95	=95
2.DD/ 2.D/	12A/L	.
.	12d/	.
.	12f/J	.
.	12a\L	.
.	12dd\	.
.	12ff\J	.
.	12aa'\L	.
.	12ff\	.
.	12dd\J	.
=96	=96	=96
2.EE/ 2.E/	12aa'\L	.
.	12ee\	.
.	12cc\J	.
.	12a/L	.
.	12e/	.
.	12c/J	.
.	12A/L	.
.	12c/	.
.	12e/J	.
=97	=97	=97
4FF#/ 4F#/	12a/L	.
.	12d#/	.
.	12B/J	.
4EE/ 4E/	12a/L	.
.	12e/	.
.	12B/J	.
4DD#/ 4D#/	12a/L	.
.	12f#/	.
.	12B/J	.
=98	=98	=98
4EE/ 4E/	12a/L	.
.	12e/	.
.	12B/J	.
4r	12g#/L	.
.	12e/	.
.	12B/J	.
4r	12g#/L	.
.	12e/	.
.	12B/J	.
=99	=99	=99
2.AA\ 2.A\	12e\L	.
.	12a\	.
.	12cc\J	.
.	12ee\L	.
.	12aa\	.
.	12ccc\J	.
.	12eee'\L	.
.	12ccc\	.
.	12aa\J	.
=100	=100	=100
2.BB\ 2.B\	12eee'\L	.
.	12bb\	.
.	12gg#\J	.
.	12ee\L	.
.	12b\	.
.	12g#\J	.
.	12e\L	.
.	12g#\	.
.	12b\J	.
=101	=101	=101
2.C\ 2.c\	12e\L	.
.	12a\	.
.	12cc\J	.
.	12ee\L	.
.	12aa\	.
.	12ccc\J	.
.	12eee\L	.
.	12ccc\	.
.	12aa\J	.
=102	=102	=102
2.D\ 2.A\ 2.d\	12fff\L	.
.	12ddd\	.
.	12aa\J	.
.	12ff\L	.
.	12dd\	.
.	12a\J	.
.	12f\L	.
.	12a\	.
.	12dd\J	.
=103	=103	=103
2.C\ 2.F\ 2.A-\ 2.c\	12f\L	.
.	12a-\	.
.	12dd\J	.
.	12ff\L	.
.	12aa-\	.
.	12ddd\J	.
.	12fff\L	.
.	12ddd\	.
.	12aa-\J	.
=104	=104	=104
4BB\ 4D\ 4F\ 4G\ 4B\	12fff\L	ff
.	12ddd\	.
.	12bb\J	.
4r	12gg\L	.
.	12ff\	.
.	12dd\J	.
4r	12b\L	.
.	12g\	.
.	12f\J	.
=105	=105	=105
*^	*	*
12d/L	4r	2.r	.
12B/	.	.	.
12G/J	.	.	.
12F/L	4r	.	.
12D/	.	.	.
12BB/J	.	.	.
12GG/	12r	.	.
12r	12DD\L	.	.
12r	12BBB\J	.	.
*v	*v	*	*
=106	=106	=106
4GGG/	2.r	.
4r	.	.
4r	.	.
=107	=107	=107
4r	4r	.
8r	8r	.
=108||	=108||	=108||
*>E	*>E	*>E
4r	4r	.
4r	4r	.
4AA\ 4A\	4a\ 4aa\	ff
=109	=109	=109
4AAA/ 4AA/	4A/ 4a/	.
4r	4r	.
4r	4r	.
=110	=110	=110
4r	4r	.
4r	4r	.
4FF#\ 4F#\	4f#\ 4ff#\	ff
=111	=111	=111
*^	*	*
4F#/	4FFF#\ 4FF#\	4f#/	.
4r	4r	4r	.
4F#/	4FFF#\ 4FF#\	4f#/	.
=112	=112	=112	=112
4G/	4GGG\ 4GG\	4g/	.
8r	2r	4r	p
(8GG/L	.	.	.
8FF#/	.	4r	.
8GG/J)	.	.	.
*v	*v	*	*
=113	=113	=113
(4AA-/	2.d/ 2.f/ 2.b/	p
4GG/)	.	.
4GG'/	.	.
=114	=114	=114
(4AA-/	2.c/ 2.e/ 2.cc/	.
4GG/)	.	.
4GG'/	.	.
=115	=115	=115
(4AA-/	2.c/ 2.e-/ 2.f#/	.
4GG/)	.	.
4GG'/	.	.
=116	=116	=116
(4AA-/	2.B/ 2.d/ 2.g/	.
4GG/)	.	.
4GG'/	.	.
=117	=117	=117
(4AA-/	[2.G/ 2.c/ 2.e/	.
4GG/)	.	.
4GG'/	.	.
=118	=118	=118
(4AA-/	2.G/] 2.d/ 2.f/	.
4GG/)	.	.
4GG'/	.	.
=119	=119	=119
(4AA-/	2.F/ 2.B/ 2.d/	.
4GG/)	.	.
4GG'/	.	.
=120	=120	=120
*^	*	*
2.E/ 2.G/	4CC\	2.c/	pp
.	8r	.	.
.	(8CC/L	.	.
.	8BBB/	.	.
.	8CC/J)	.	.
*v	*v	*	*
=121	=121	=121
(4DD-/	2.B/ 2.f/	pp
4CC/)	.	.
4CC'/	.	.
=122	=122	=122
(4DD-/	2.c/ 2.e/	.
4CC/)	.	.
4CC'/	.	.
=123	=123	=123
(4DD-/	2.f/ 2.b/	.
4CC/)	.	.
4CC'/	.	.
=124	=124	=124
(4DD-/	2.e/ 2.cc/	.
4CC/)	.	.
4CC'/	.	.
=125	=125	=125
(4DD-/	2.b\ 2.ff\	.
4CC/)	.	.
4CC'/	.	.
=126	=126	=126
(4DD-/	2.cc\ 2.ee\	.
4CC/)	.	.
4CC'/	.	.
=127	=127	=127
(4DD-/	2.ff\ 2.bb\	.
4CC/)	.	.
4CC'/	.	.
=128	=128	=128
4CC'/	4ee\ 4ccc\	.
4r	4r	.
*	*clefF4	*clefF4
4BBB/	(4BB/	pp
=129	=129	=129
4CC/	4C/)	.
4r	4r	.
4BBB/	(4BB/	.
=130	=130	=130
4CC/	4C/)	.
8r;	8r;	.
==	==	==
*-	*-	*-
!!!ENC: Craig Stuart Sapp
!!!END: 2008/01/25/
!!!hum2abc: --spacing 1.2
